X: 201
T: Xiao shanyang (1)
%%abc-version 2.0
%%abcx-abcm2ps-target-version 5.9.1 (29 Sep 2008)
%%abc-creator hum2abc beta
%%abcx-conversion-date 2013/10/02 07:44:28
%%abc-edited-by Helmut Schaffrath
%%humdrum-veritas 2412282210
%%humdrum-veritas-data 3462714312
%%continueall 1
%%barnumbers 0
L: 1/16
M: 3/4
K: C
C2 A,2 C2 D C C D E2 [I:setbarnb 1]| 
[M:2/4]D C-C4C2 | 
C2> D2 E3 G | 
C2 D E D2 C2 | 
D C D2 D2 C2 | 
C D C2 D C C2 | 
C2> D2 E3 G | 
D E D2 E D E2 | 
D4C4 |]  



